assets/images/open-padlock.svg

<svg width="134" height="116" viewBox="0 0 134 116" fill="none" xmlns="http://www.w3.org/2000/svg">
<path d="M24.6772 51.1313L24.0823 46.0667C24.0823 46.0667 24.9746 44.7322 20.8184 44.7322C16.6622 44.7322 9.53951 44.9975 9.53951 44.9975C9.53951 44.9975 7.16797 45.2628 7.16797 47.1278V51.1313H24.6852H24.6772Z" fill="#D18000"/>
<path d="M79.978 51.1313L79.3831 46.0667C79.3831 46.0667 80.2754 44.7322 76.1192 44.7322C71.963 44.7322 64.8403 44.9975 64.8403 44.9975C64.8403 44.9975 62.4688 45.2628 62.4688 47.1278V51.1313H79.986H79.978Z" fill="#D18000"/>
<path d="M133.325 43.7514L132.666 28.7022C132.666 28.7022 126.387 -0.174403 98.5557 0.717941C70.7242 1.61029 64.534 28.2841 64.534 28.2841L62.9021 44.1052L77.9433 43.7514L78.0157 30.7682C78.0157 30.7682 82.6623 15.1482 98.6521 14.9552C114.642 14.7623 117.85 30.9451 117.85 30.9451L119.715 45.2628C119.715 45.2628 125.157 46.5732 128.662 46.8063C132.167 47.0394 133.325 43.7514 133.325 43.7514Z" fill="#E4BC07"/>
<path d="M84.6003 51.662H1.37915V80.2009C1.37915 80.2009 2.18306 114.874 45.6587 114.608C74.1976 114.608 85.1389 89.0038 85.4042 78.3358C85.6695 67.6679 84.6003 51.662 84.6003 51.662Z" fill="#FF7101"/>
<path d="M9.65143 51.3967H1.37915V81.0048C1.37915 81.0048 4.57873 113.282 38.7209 114.078C38.7209 114.078 10.9779 107.14 9.11281 76.4707C8.0436 59.4036 9.64338 51.3967 9.64338 51.3967H9.65143Z" fill="#BF3013"/>
<path d="M45.3932 58.3344C45.3932 58.3344 52.5963 62.8684 52.5963 67.6678C52.5963 72.4672 49.3967 78.3357 47.5316 78.8744L51.5351 103.418L57.669 102.349L53.9308 77.2746C53.9308 77.2746 60.3299 73.0058 59.2687 67.9411C58.1995 62.8765 54.4694 56.4693 45.4012 58.3424L45.3932 58.3344Z" fill="#D18000"/>
<path d="M47.5235 78.8744C47.5235 78.8744 52.7731 74.1635 52.7731 69.0024C52.7731 63.8412 47.7968 59.0419 43.8818 59.0419C39.9667 59.0419 37.4183 65.634 37.4826 67.0408C37.5389 68.4557 39.7979 75.4015 42.6357 77.355L37.8364 102.783C37.8364 102.783 48.858 105.098 51.527 103.402L47.5235 78.8583V78.8744Z" fill="#002140"/>
<path d="M85.1793 51.453V76.318C85.1793 97.4288 68.064 114.544 46.9533 114.544C25.8425 114.544 8.72717 97.4288 8.72717 76.318V51.453H85.1874H85.1793Z" stroke="#002140" stroke-linecap="round" stroke-linejoin="round"/>
<path d="M48.8262 114.552C14.6599 114.552 1.37122 97.4368 1.37122 76.3261V51.461H11.0584" stroke="#002140" stroke-linecap="round" stroke-linejoin="round"/>
<path d="M59.0364 68.4558C59.0364 62.4988 54.2048 57.6672 48.2478 57.6672C42.2908 57.6672 37.4593 62.4988 37.4593 68.4558C37.4593 72.3869 39.5656 75.8116 42.7008 77.7008L37.3307 102.349C37.3307 102.349 46.4792 107.743 57.5009 102.349L53.0392 78.1027C56.5844 76.3341 59.0283 72.6843 59.0283 68.4477L59.0364 68.4558Z" stroke="#002140" stroke-linecap="round" stroke-linejoin="round"/>
<path d="M51.1743 103.289L46.7125 79.0432C50.2578 77.2746 52.7017 73.6249 52.7017 69.3882C52.7017 64.1708 49.0037 59.8217 44.0837 58.8168" stroke="#002140" stroke-linecap="round" stroke-linejoin="round"/>
<path d="M6.81323 50.9385V46.9913C6.81323 45.6728 8.04322 44.6117 9.56262 44.6117H21.9268C23.4462 44.6117 24.6762 45.6809 24.6762 46.9913V50.9385" stroke="#002140" stroke-linecap="round" stroke-linejoin="round"/>
<path d="M62.1155 50.9385V46.9913C62.1155 45.6728 63.3455 44.6117 64.8649 44.6117H77.2291C78.7485 44.6117 79.9784 45.6809 79.9784 46.9913V50.9385" stroke="#002140" stroke-linecap="round" stroke-linejoin="round"/>
<path d="M77.9438 44.6116V34.8441C77.9438 23.4607 87.1728 14.2398 98.5482 14.2398C109.932 14.2398 119.152 23.4687 119.152 34.8441V44.5232" stroke="#002140" stroke-linecap="round" stroke-linejoin="round"/>
<path d="M133.326 44.5071V35.4791C133.326 16.2817 117.762 0.717926 98.5644 0.717926C79.367 0.717926 63.8032 16.2817 63.8032 35.4791V44.6036" stroke="#002140" stroke-linecap="round" stroke-linejoin="round"/>
<path d="M119.152 44.5151C119.152 44.5151 121.323 46.8625 127.191 46.8625C133.06 46.8625 133.325 44.5071 133.325 44.5071" stroke="#002140" stroke-linecap="round" stroke-linejoin="round"/>
</svg>

<svg xmlns="http://www.w3.org/2000/svg" width="134" height="116" fill="none" viewBox="0 0 134 116"><path fill="#d18000" d="m24.677 51.131-.595-5.064s.893-1.335-3.264-1.335c-4.156 0-11.278.266-11.278.266s-2.372.265-2.372 2.13v4.003h17.517zm55.301 0-.595-5.064s.892-1.335-3.264-1.335-11.279.266-11.279.266-2.371.265-2.371 2.13v4.003h17.517z"/><path fill="#e4bc07" d="m133.325 43.751-.659-15.049S126.387-.174 98.556.718c-27.832.892-34.022 27.566-34.022 27.566l-1.632 15.821 15.041-.354.073-12.983s4.646-15.62 20.636-15.813 19.198 15.99 19.198 15.99l1.865 14.318s5.442 1.31 8.947 1.543 4.663-3.055 4.663-3.055"/><path fill="#ff7101" d="M84.6 51.662H1.38v28.539s.803 34.673 44.279 34.407c28.539 0 39.48-25.604 39.745-36.272S84.6 51.662 84.6 51.662"/><path fill="#bf3013" d="M9.651 51.397H1.38v29.608s3.2 32.277 37.342 33.073c0 0-27.743-6.938-29.608-37.607-1.07-17.067.53-25.074.53-25.074z"/><path fill="#d18000" d="M45.393 58.334s7.203 4.534 7.203 9.334-3.2 10.668-5.064 11.206l4.003 24.544 6.134-1.069-3.738-25.074s6.399-4.27 5.338-9.334c-1.07-5.065-4.8-11.472-13.868-9.599z"/><path fill="#002140" d="M47.524 78.874s5.25-4.71 5.25-9.872c0-5.16-4.977-9.96-8.892-9.96s-6.464 6.592-6.4 7.999c.057 1.415 2.316 8.36 5.154 10.314l-4.8 25.428s11.022 2.315 13.691.619l-4.004-24.544z"/><path stroke="#002140" stroke-linecap="round" stroke-linejoin="round" d="M85.18 51.453v24.865c0 21.11-17.116 38.226-38.227 38.226S8.727 97.429 8.727 76.318V51.453h76.46z"/><path stroke="#002140" stroke-linecap="round" stroke-linejoin="round" d="M48.826 114.552c-34.166 0-47.455-17.115-47.455-38.226V51.461h9.687"/><path stroke="#002140" stroke-linecap="round" stroke-linejoin="round" d="M59.036 68.456c0-5.957-4.831-10.789-10.788-10.789S37.459 62.5 37.459 68.456c0 3.93 2.107 7.356 5.242 9.245l-5.37 24.648s9.148 5.394 20.17 0l-4.462-24.246c3.545-1.769 5.99-5.419 5.99-9.655z"/><path stroke="#002140" stroke-linecap="round" stroke-linejoin="round" d="m51.174 103.289-4.462-24.246c3.546-1.768 5.99-5.418 5.99-9.655 0-5.217-3.698-9.566-8.618-10.571M6.813 50.939V46.99c0-1.318 1.23-2.38 2.75-2.38h12.364c1.52 0 2.75 1.07 2.75 2.38v3.947m37.439.002V46.99c0-1.318 1.23-2.38 2.749-2.38h12.364c1.52 0 2.75 1.07 2.75 2.38v3.947"/><path stroke="#002140" stroke-linecap="round" stroke-linejoin="round" d="M77.944 44.612v-9.768c0-11.383 9.229-20.604 20.604-20.604 11.384 0 20.604 9.229 20.604 20.604v9.68"/><path stroke="#002140" stroke-linecap="round" stroke-linejoin="round" d="M133.326 44.507V35.48c0-19.197-15.564-34.761-34.762-34.761-19.197 0-34.76 15.564-34.76 34.761v9.125"/><path stroke="#002140" stroke-linecap="round" stroke-linejoin="round" d="M119.152 44.515s2.171 2.347 8.039 2.347 6.134-2.355 6.134-2.355"/></svg>
